mobile/apps/auth/assets/custom-icons/icons/esketit.svg

<svg xmlns="http://www.w3.org/2000/svg" fill="none" viewBox="0 0 1000 1000"><path fill="#0B042C" d="M0 0h1000v1000H0z"/><path fill="#fff" fill-rule="evenodd" d="M530.713 484.942c.764-4.322 1.914-8.339 3.457-12.051 3.056-7.346 7.553-13.074 13.498-17.176 5.941-4.102 13.41-6.153 22.411-6.153 8.826 0 16.084 1.883 21.774 5.64 5.685 3.761 9.971 9.017 12.861 15.767 1.775 4.156 3 8.817 3.682 13.973h-77.683Zm76.421-50.25c-9.765-6.494-22.117-9.743-37.055-9.743-11.377 0-21.309 2.01-29.797 6.025-8.491 4.018-15.535 9.401-21.136 16.152-5.603 6.755-9.807 14.357-12.607 22.817-2.801 8.461-4.202 17.222-4.202 26.28v4.615a82.264 82.264 0 0 0 4.202 26.021c2.8 8.462 7.004 16.069 12.607 22.819 5.601 6.754 12.772 12.177 21.518 16.28 8.742 4.101 19.057 6.153 30.943 6.153 11.034 0 20.839-1.839 29.414-5.513 8.57-3.674 15.702-9.013 21.391-16.024 5.687-7.006 9.552-15.21 11.588-24.612h-26.739c-1.529 5.813-5.393 10.857-11.588 15.127-6.2 4.274-14.221 6.409-24.066 6.409-9.678 0-17.616-2.091-23.812-6.281-6.199-4.187-10.783-9.999-13.752-17.434-2.307-5.772-3.706-12.142-4.221-19.099h106.471v-11.538c0-11.793-2.42-22.858-7.259-33.201-4.838-10.34-12.14-18.756-21.9-25.253Zm-123.27-5.128h-30.051l-56.028 67.731V388.77h-28.777v178.725h28.777v-64.35h16.81l49.404 64.35h32.853L434.99 488.47l48.874-58.906Zm-156.362 69.223c-9.001-6.834-21.138-11.025-36.418-12.563l-13.752-1.537c-7.812-.855-13.414-2.692-16.809-5.513-3.397-2.82-5.093-6.621-5.093-11.41 0-5.467 2.293-9.998 6.876-13.587 4.585-3.59 11.29-5.384 20.119-5.384 8.996 0 15.828 1.883 20.501 5.64 4.667 3.762 7.086 8.204 7.258 13.331h26.484c-.34-13.843-5.474-24.355-15.406-31.534-9.933-7.178-22.88-10.768-38.837-10.768-10.529 0-19.781 1.712-27.758 5.128-7.983 3.42-14.262 8.292-18.846 14.614-4.585 6.325-6.877 14.017-6.877 23.074 0 11.625 4.116 20.811 12.352 27.56 8.233 6.754 19.31 10.896 33.234 12.435l13.752 1.281c9.335 1.026 16.044 3.037 20.118 6.026 4.076 2.992 6.112 7.138 6.112 12.434 0 5.813-2.716 10.639-8.148 14.485-5.436 3.846-13.159 5.768-23.175 5.768-11.205 0-19.271-2.178-24.194-6.537-4.927-4.359-7.639-9.101-8.15-14.228h-26.23c.338 13.843 5.603 24.656 15.79 32.431 10.186 7.775 24.448 11.666 42.784 11.666 11.372 0 21.432-1.84 30.178-5.513 8.742-3.674 15.535-8.845 20.374-15.511 4.838-6.666 7.258-14.357 7.258-23.073 0-12.308-4.5-21.877-13.497-28.715Zm372.455-109.731h-27.25v40.508h-22.92v21.535h22.92v67.685c0 12.65 1.993 22.649 5.984 29.995 3.988 7.352 9.844 12.563 17.572 15.64 7.724 3.076 17.191 4.615 28.397 4.615h20.372v-25.126h-22.919c-7.131 0-12.607-1.962-16.426-5.896-3.82-3.93-5.73-9.486-5.73-16.664v-70.249h45.075v-21.535h-45.075v-40.508Zm229.196 62.043v-21.535h-45.075v-40.508h-27.25v40.508h-22.921v21.535h22.921v67.685c0 12.65 1.993 22.649 5.984 29.995 3.988 7.352 9.844 12.563 17.571 15.64 7.725 3.076 17.191 4.615 28.397 4.615h20.373v-25.126h-22.919c-7.131 0-12.607-1.962-16.426-5.896-3.822-3.93-5.73-9.486-5.73-16.664v-70.249h45.075Zm-165.022.77h20.374v115.627h28.777V429.564h-49.151v22.305Zm-493.945-42.22h27.053v-20.64h-27.053v20.64Zm515.551 0h27.054v-20.64h-27.054v20.64ZM98.156 484.942c.763-4.322 1.914-8.339 3.457-12.051 3.056-7.346 7.552-13.074 13.498-17.176 5.939-4.102 13.409-6.153 22.411-6.153 8.826 0 16.083 1.883 21.774 5.64 5.686 3.761 9.971 9.017 12.86 15.767 1.775 4.156 2.999 8.817 3.683 13.973H98.156Zm76.42-50.25c-9.765-6.494-22.116-9.743-37.054-9.743-11.378 0-21.31 2.01-29.797 6.025-8.491 4.018-15.536 9.401-21.137 16.152-5.603 6.755-9.805 14.357-12.606 22.817-2.801 8.461-4.203 17.222-4.203 26.28v4.615a82.27 82.27 0 0 0 4.203 26.021c2.8 8.462 7.003 16.069 12.606 22.819 5.601 6.754 12.773 12.177 21.518 16.28 8.743 4.101 19.056 6.153 30.943 6.153 11.035 0 20.839-1.839 29.415-5.513 8.571-3.674 15.701-9.013 21.391-16.024 5.686-7.006 9.55-15.21 11.588-24.612h-26.74c-1.528 5.813-5.392 10.857-11.588 15.127-6.2 4.274-14.22 6.409-24.066 6.409-9.677 0-17.616-2.091-23.811-6.281-6.2-4.187-10.783-9.999-13.753-17.434-2.307-5.772-3.706-12.142-4.222-19.099h106.473v-11.538c0-11.793-2.42-22.858-7.26-33.201-4.838-10.34-12.139-18.756-21.9-25.253Zm95.61 173.383h27.053v-19.992h-27.053v19.992Z" clip-rule="evenodd"/></svg>

<svg width="1000" height="1000" viewBox="0 0 1000 1000" fill="none" xmlns="http://www.w3.org/2000/svg">
  <rect width="1000" height="1000" fill="#0B042C"/>
  <path fill-rule="evenodd" clip-rule="evenodd"
        d="M530.713 484.942C531.477 480.62 532.627 476.603 534.17 472.891C537.226 465.545 541.723 459.817 547.668 455.715C553.609 451.613 561.078 449.562 570.079 449.562C578.905 449.562 586.163 451.445 591.853 455.202C597.538 458.963 601.824 464.219 604.714 470.969C606.489 475.125 607.714 479.786 608.396 484.942H530.713ZM607.134 434.692C597.369 428.198 585.017 424.949 570.079 424.949C558.702 424.949 548.77 426.959 540.282 430.974C531.791 434.992 524.747 440.375 519.146 447.126C513.543 453.881 509.339 461.483 506.539 469.943C503.738 478.404 502.337 487.165 502.337 496.223V500.838C502.337 509.726 503.738 518.399 506.539 526.859C509.339 535.321 513.543 542.928 519.146 549.678C524.747 556.432 531.918 561.855 540.664 565.958C549.406 570.059 559.721 572.111 571.607 572.111C582.641 572.111 592.446 570.272 601.021 566.598C609.591 562.924 616.723 557.585 622.412 550.574C628.099 543.568 631.964 535.364 634 525.962H607.261C605.732 531.775 601.868 536.819 595.673 541.089C589.473 545.363 581.452 547.498 571.607 547.498C561.929 547.498 553.991 545.407 547.795 541.217C541.596 537.03 537.012 531.218 534.043 523.783C531.736 518.011 530.337 511.641 529.822 504.684H636.293V493.146C636.293 481.353 633.873 470.288 629.034 459.945C624.196 449.605 616.894 441.189 607.134 434.692ZM483.864 429.564H453.813L397.785 497.295V388.77H369.008V567.495H397.785V503.145H414.595L463.999 567.495H496.852L434.99 488.47L483.864 429.564ZM327.502 498.787C318.501 491.953 306.364 487.762 291.084 486.224L277.332 484.687C269.52 483.832 263.918 481.995 260.523 479.174C257.126 476.354 255.43 472.553 255.43 467.764C255.43 462.297 257.723 457.766 262.306 454.177C266.891 450.587 273.596 448.793 282.425 448.793C291.421 448.793 298.253 450.676 302.926 454.433C307.593 458.195 310.012 462.637 310.184 467.764H336.668C336.328 453.921 331.194 443.409 321.262 436.23C311.329 429.052 298.382 425.462 282.425 425.462C271.896 425.462 262.644 427.174 254.667 430.59C246.684 434.01 240.405 438.882 235.821 445.204C231.236 451.529 228.944 459.221 228.944 468.278C228.944 479.903 233.06 489.089 241.296 495.838C249.529 502.592 260.606 506.734 274.53 508.273L288.282 509.554C297.617 510.58 304.326 512.591 308.4 515.58C312.476 518.572 314.512 522.718 314.512 528.014C314.512 533.827 311.796 538.653 306.364 542.499C300.928 546.345 293.205 548.267 283.189 548.267C271.984 548.267 263.918 546.089 258.995 541.73C254.068 537.371 251.356 532.629 250.845 527.502H224.615C224.953 541.345 230.218 552.158 240.405 559.933C250.591 567.708 264.853 571.599 283.189 571.599C294.561 571.599 304.621 569.759 313.367 566.086C322.109 562.412 328.902 557.241 333.741 550.575C338.579 543.909 340.999 536.218 340.999 527.502C340.999 515.194 336.499 505.625 327.502 498.787ZM699.957 389.056H672.707V429.564H649.787V451.099H672.707V518.784C672.707 531.434 674.7 541.433 678.691 548.779C682.679 556.131 688.535 561.342 696.263 564.419C703.987 567.495 713.454 569.034 724.66 569.034H745.032V543.908H722.113C714.982 543.908 709.506 541.946 705.687 538.012C701.867 534.082 699.957 528.526 699.957 521.348V451.099H745.032V429.564H699.957V389.056ZM929.153 451.099V429.564H884.078V389.056H856.828V429.564H833.907V451.099H856.828V518.784C856.828 531.434 858.821 541.433 862.812 548.779C866.8 556.131 872.656 561.342 880.383 564.419C888.108 567.495 897.574 569.034 908.78 569.034H929.153V543.908H906.234C899.103 543.908 893.627 541.946 889.808 538.012C885.986 534.082 884.078 528.526 884.078 521.348V451.099H929.153ZM764.131 451.869H784.505V567.496H813.282V429.564H764.131V451.869ZM270.186 409.649H297.239V389.009H270.186V409.649ZM785.737 409.649H812.791V389.009H785.737V409.649ZM98.1558 484.942C98.9189 480.62 100.07 476.603 101.613 472.891C104.669 465.545 109.165 459.817 115.111 455.715C121.05 451.613 128.52 449.562 137.522 449.562C146.348 449.562 153.605 451.445 159.296 455.202C164.982 458.963 169.267 464.219 172.156 470.969C173.931 475.125 175.155 479.786 175.839 484.942H98.1558ZM174.576 434.692C164.811 428.198 152.46 424.949 137.522 424.949C126.144 424.949 116.212 426.959 107.725 430.974C99.2339 434.992 92.1892 440.375 86.5877 447.126C80.9849 453.881 76.7825 461.483 73.9817 469.943C71.1809 478.404 69.7793 487.165 69.7793 496.223V500.838C69.7793 509.726 71.1809 518.399 73.9817 526.859C76.7825 535.321 80.9849 542.928 86.5877 549.678C92.1892 556.432 99.3609 561.855 108.106 565.958C116.849 570.059 127.162 572.111 139.049 572.111C150.084 572.111 159.888 570.272 168.464 566.598C177.035 562.924 184.165 557.585 189.855 550.574C195.541 543.568 199.405 535.364 201.443 525.962H174.703C173.175 531.775 169.311 536.819 163.115 541.089C156.915 545.363 148.895 547.498 139.049 547.498C129.372 547.498 121.433 545.407 115.238 541.217C109.038 537.03 104.455 531.218 101.485 523.783C99.1778 518.011 97.7786 511.641 97.2634 504.684H203.736V493.146C203.736 481.353 201.316 470.288 196.476 459.945C191.638 449.605 184.337 441.189 174.576 434.692ZM270.186 608.075H297.239V588.083H270.186V608.075Z"
        fill="white"/>
</svg>
